X:515
T:Reel 515
M:4/4
K:Gmaj
L:1/8
 (3gfe dc BcAc| (3BAG Bd efg2| (3BAG dG BdGB|cAFA G2G2:|gfga bgaf|gabg eaa2|gaga gfed| (3efg dc BGG2|gaga gfed|eaab agfe|dBcA BGAF|DEFG AGG2|
